X:1
T:Bokvals
C:Samuel Andersson
R:vals
M:3/4
L:1/8
K:Dm
"Dm"A4 d2|"Gm"G4 AB|cB G2 BG|"A"AB AG FE|
"Dm"A4 d2|"Gm"G4 AB|cB G2 Bc|1"A"A6:|2"A"A3 ^cde|
|:"Dm"fe d3 e|"Gm"f4 de|f4 d2|"A"^cd ec de|
"Dm"fe d3 e|"Gm"f4 df|a3 g fg|1"A"e3 ^cde:|2"A"e6|]

